X:274
T: Alles kommt zu seinem Ende (3-76), S. 211
N: P1049
O: Lothringen
S: PINCK, Louis: Verklingende Weisen, Bd3, Metz 1933]
R: Sehnsucht, Kummer]
M: 3/4
L: 1/16
K: E
=G2F2 | E6B2A2=G2 | =G4F4
G2F2 | E4-(3E2=G2F2E2D2 | E8
=G2F2 | E3F=G2A2B2B2 | A2=G2F4
G2F2 | E4-(3E2=G2F2E2D2 | E8
=G2A2 | B4-(3B2A2B2(3=d2=c2B2 | B2=G2A4
B2A2 | =G2A2B4A2G2 | F8
=G2F2 | E3F=G2A2B2B2 | A2=G2F4
G2F2 | E4-(3E2=G2F2E2D2 | E8

@@@ Tune index: 7824
